X: 1
T: The Gooseberry Bush
R: reel
M: 4/4
L: 1/8
K: Dmaj
|:ADFD EFGE | AGAB =c2 AG | AB=cA d^cAG | FGAF GBAF |
D2 FD EFGE | ABcA d2 de | fdec dfed | cAGE FD D2 :|
|:Ad d2 fded | =c2 cB cA G2 | ABAF GEED | FGAB =cAGB |
Ad d2 fded | =c2 cB cA G2 | ABcA d^cAG | ABcA d4 :|
|:Adcd fdcd | efge aged | cdef g2 ef | g2 ge dcAc |
d2 cd ABAG | FGAB =c2 AG | AB=cA d=cAG | ABcA d4 :|


Tune 2732	Setting 27289

